img/icon-4.svg

<svg xmlns="http://www.w3.org/2000/svg" width="34.4" height="34.4"><path d="M.3 14.1c-.4 2.1-.4 4.2 0 6.3l4.1-3.2-4.1-3.1zM24.4 1.6C19.6-.6 14-.6 9.1 2l7.5 5.6 7.8-6zm9.5 11.6l-4.8 3.7 4.9 3.7c.5-2.4.5-5-.1-7.4zM9.2 32.4c4.8 2.5 10.7 2.7 15.7.1l-8.1-6.1-7.6 6zm-1.3-18L1.7 9.8c-.3.7-.6 1.4-.8 2.1l5.3 4 1.7-1.5zm10.7 10.7l8.3 6.2c.3-.2.6-.4.8-.6.3-.2.6-.5.9-.8l-8.3-6.2-1.7 1.4zm-7.2-13.4L4 6.2c-.5.5-.9 1.1-1.3 1.7l6.9 5.2 1.8-1.4zm10.7 10.7l8.1 6.1c.5-.5.9-1.1 1.3-1.7L23.8 21l-1.7 1.4zM14.9 9L7.2 3.2c-.2.1-.4.3-.6.4-.4.3-.8.6-1.1 1l7.7 5.7L14.9 9zm10.7 10.6l7 5.2c.3-.7.6-1.3.9-2l-6.1-4.6-1.8 1.4zm.8-16.9L.9 22.6c.2.7.5 1.4.8 2.1L28.2 4c-.5-.5-1.1-.9-1.8-1.3zm4.3 3.9c-.3-.4-.6-.8-.9-1.1l-27 21c.2.5.5.9.8 1.2.1.2.3.4.4.5l27.2-21c-.2-.2-.3-.4-.5-.6zM32.3 9L5.6 29.8c.5.5 1.1 1 1.7 1.4l26-20.2c-.3-.7-.6-1.4-1-2z" fill="#6cc7b6"/></svg>

<?xml version="1.0" encoding="utf-8"?>
<!-- Generator: Adobe Illustrator 23.0.1, SVG Export Plug-In . SVG Version: 6.00 Build 0)  -->
<svg version="1.1" id="Layer_1" xmlns="http://www.w3.org/2000/svg" xmlns:xlink="http://www.w3.org/1999/xlink" x="0px" y="0px"
	 width="34.4px" height="34.4px" viewBox="0 0 34.4 34.4" style="enable-background:new 0 0 34.4 34.4;" xml:space="preserve">
<style type="text/css">
	.st0{fill:#6CC7B6;}
</style>
<g>
	<path class="st0" d="M0.3,14.1c-0.4,2.1-0.4,4.2,0,6.3l4.1-3.2L0.3,14.1z"/>
	<path class="st0" d="M24.4,1.6C19.6-0.6,14-0.6,9.1,2l7.5,5.6L24.4,1.6z"/>
	<path class="st0" d="M33.9,13.2l-4.8,3.7l4.9,3.7C34.5,18.2,34.5,15.6,33.9,13.2z"/>
	<path class="st0" d="M9.2,32.4c4.8,2.5,10.7,2.7,15.7,0.1l-8.1-6.1L9.2,32.4z"/>
	<path class="st0" d="M7.9,14.4L1.7,9.8c-0.3,0.7-0.6,1.4-0.8,2.1l5.3,4L7.9,14.4z"/>
	<path class="st0" d="M18.6,25.1l8.3,6.2c0.3-0.2,0.6-0.4,0.8-0.6c0.3-0.2,0.6-0.5,0.9-0.8l-8.3-6.2L18.6,25.1z"/>
	<path class="st0" d="M11.4,11.7L4,6.2C3.5,6.7,3.1,7.3,2.7,7.9l6.9,5.2L11.4,11.7z"/>
	<path class="st0" d="M22.1,22.4l8.1,6.1c0.5-0.5,0.9-1.1,1.3-1.7L23.8,21L22.1,22.4z"/>
	<path class="st0" d="M14.9,9L7.2,3.2C7,3.3,6.8,3.5,6.6,3.6c-0.4,0.3-0.8,0.6-1.1,1l7.7,5.7L14.9,9z"/>
	<path class="st0" d="M25.6,19.6l7,5.2c0.3-0.7,0.6-1.3,0.9-2l-6.1-4.6L25.6,19.6z"/>
	<path class="st0" d="M26.4,2.7L0.9,22.6c0.2,0.7,0.5,1.4,0.8,2.1L28.2,4C27.7,3.5,27.1,3.1,26.4,2.7z"/>
	<path class="st0" d="M30.7,6.6c-0.3-0.4-0.6-0.8-0.9-1.1l-27,21C3,27,3.3,27.4,3.6,27.7c0.1,0.2,0.3,0.4,0.4,0.5L31.2,7.2
		C31,7,30.9,6.8,30.7,6.6z"/>
	<path class="st0" d="M32.3,9L5.6,29.8c0.5,0.5,1.1,1,1.7,1.4l26-20.2C33,10.3,32.7,9.6,32.3,9z"/>
</g>
</svg>
